X: 210
T: The miners of Wicklow
C: anon.
O: Ireland
B: Francis O'Neill: "The Dance Music of Ireland" (1907) no. 210
R: Double jig
Z: Transcribed by Frank Nordberg - http://www.musicaviva.com
F: http://www.musicaviva.com/abc/tunes/ireland/oneill-1001/oneill-1001-021
0.abc
M: 6/8
L: 1/8
K: D
(D>EF/G/) ABc|dcB AGF|GBG EFE|FAF DED|(D>EF/G/) ABc|dcB AFA|[1 Bcd edc|dA
G FED:|[2 Bcd efg fdd d2||
|:g|fdd fdf|ecA efg|fdd d.ef|{a}gfg efg|(f/g/a)f gab|afd cBA|[1 Bcd efg|f
ddd2:|[2 Bcd edc|dAG FED|]
W:
W:
W: From Musica Viva - http://www.musicaviva.com
W: the Internet center for free sheet music downloads.


